web/ui/src/assets/svgs/logo/gitea.svg

<svg height="56" viewBox="0 0 56 56" width="56" xmlns="http://www.w3.org/2000/svg"><g fill="none" fill-rule="evenodd"><path d="m0 0h56v56h-56z" fill="#000" opacity="0"/><g fill-rule="nonzero" transform="translate(0 11)"><path d="m34.20375 29.855-11.10375-5.3375c-1.09375-.525-1.56625-1.855-1.0325-2.9575l5.3375-11.10375c.525-1.09375 1.855-1.56625 2.9575-1.0325 1.505.72625 2.37125 1.1375 2.37125 1.1375l-.00875-9.555 1.46125-.00875.00875 10.24625s5.0225 2.1175 7.27125 3.50875c.32375.20125.8925.595 1.12875 1.26.18375.53375.175 1.14625-.0875 1.68875l-5.3375 11.10375c-.5425 1.11125-1.8725 1.58375-2.96625 1.05z" fill="#fff"/><g fill="#609926"><path d="m54.04875.595c-.35875-.35875-.84-.35-.84-.35s-10.255.5775-15.56625.7c-1.16375.02625-2.31875.0525-3.465.06125v10.255c-.48125-.2275-.97125-.46375-1.4525-.69125 0-3.185-.00875-9.555-.00875-9.555-2.5375.035-7.805-.1925-7.805-.1925s-12.3725-.62125-13.72-.74375c-.8575-.0525-1.96875-.18375-3.4125.13125-.76125.1575-2.93125.6475-4.7075 2.35375-3.9375 3.50875-2.93125 9.09125-2.80875 9.93125.14875 1.02375.60375 3.8675 2.77375 6.34375 4.0075 4.90875 12.635 4.795 12.635 4.795s1.05875 2.52875 2.6775 4.85625c2.1875 2.89625 4.43625 5.15375 6.62375 5.425 5.5125 0 16.52875-.00875 16.52875-.00875s1.05.00875 2.47625-.90125c1.225-.74375 2.31875-2.0475 2.31875-2.0475s1.12875-1.2075 2.70375-3.96375c.48125-.84875.88375-1.67125 1.23375-2.45 0 0 4.83-10.24625 4.83-20.22125-.09625-3.01875-.84-3.5525-1.015-3.7275zm-43.49625 17.85875c-2.26625-.74375-3.22875-1.63625-3.22875-1.63625s-1.67125-1.1725-2.51125-3.4825c-1.44375-3.8675-.1225-6.23-.1225-6.23s.735-1.96875 3.36875-2.625c1.2075-.32375 2.7125-.27125 2.7125-.27125s.62125 5.1975 1.37375 8.2425c.63 2.555 2.17 6.79875 2.17 6.79875s-2.28375-.27125-3.7625-.79625zm26.27625 9.415s-.53375 1.26875-1.715 1.3475c-.5075.035-.90125-.105-.90125-.105s-.02625-.00875-.46375-.18375l-9.87875-4.8125s-.95375-.49875-1.12-1.365c-.1925-.70875.23625-1.58375.23625-1.58375l4.75125-9.79125s.42-.84875 1.0675-1.1375c.0525-.02625.20125-.0875.39375-.13125.70875-.18375 1.575.245 1.575.245l9.68625 4.69875s1.1025.49875 1.33875 1.4175c.16625.6475-.04375 1.225-.1575 1.505-.55125 1.3475-4.8125 9.89625-4.8125 9.89625z"/><path d="m28.1575 20.74625c-.7175.00875-1.3475.5075-1.51375 1.2075s.175 1.42625.79625 1.75c.67375.35 1.53125.1575 1.98625-.4725.44625-.62125.37625-1.47875-.1575-2.02125l2.1-4.29625c.13125.00875.32375.0175.5425-.04375.35875-.07875.62125-.315.62125-.315.3675.1575.7525.3325 1.155.53375.42.21.81375.42875 1.1725.63875.07875.04375.1575.09625.245.16625.14.11375.2975.27125.41125.48125.16625.48125-.16625 1.30375-.16625 1.30375-.20125.665-1.61 3.5525-1.61 3.5525-.70875-.0175-1.33875.4375-1.54875 1.09375-.2275.70875.09625 1.51375.77875 1.86375s1.5225.14875 1.96875-.46375c.4375-.595.4025-1.42625-.09625-1.9775.16625-.32375.32375-.6475.49-.98875.4375-.91 1.18125-2.66 1.18125-2.66.07875-.14875.49875-.90125.23625-1.86375-.21875-.9975-1.1025-1.46125-1.1025-1.46125-1.0675-.69125-2.555-1.33-2.555-1.33s0-.35875-.09625-.62125c-.09625-.27125-.245-.44625-.34125-.55125.41125-.84875.8225-1.68875 1.23375-2.5375-.35875-.175-.70875-.35-1.0675-.53375-.42.8575-.84875 1.72375-1.26875 2.58125-.58625-.00875-1.12875.30625-1.40875.8225-.2975.55125-.23625 1.23375.16625 1.7325z"/></g></g></g></svg>

<?xml version="1.0" encoding="UTF-8"?>
<svg width="56px" height="56px" viewBox="0 0 56 56" version="1.1" xmlns="http://www.w3.org/2000/svg" xmlns:xlink="http://www.w3.org/1999/xlink">
    <title>分组备份 2</title>
    <g id="页面-1" stroke="none" stroke-width="1" fill="none" fill-rule="evenodd">
        <g id="建木自动化-登录页(Gitea)" transform="translate(-464.000000, -275.000000)">
            <g id="分组备份-5" transform="translate(464.000000, 275.000000)">
                <rect id="矩形" fill="#000000" opacity="0" x="0" y="0" width="56" height="56"></rect>
                <g id="logo" transform="translate(0.000000, 11.000000)" fill-rule="nonzero">
                    <path d="M34.20375,29.855 L23.1,24.5175 C22.00625,23.9925 21.53375,22.6625 22.0675,21.56 L27.405,10.45625 C27.93,9.3625 29.26,8.89 30.3625,9.42375 C31.8675,10.15 32.73375,10.56125 32.73375,10.56125 L32.725,1.00625 L34.18625,0.9975 L34.195,11.24375 C34.195,11.24375 39.2175,13.36125 41.46625,14.7525 C41.79,14.95375 42.35875,15.3475 42.595,16.0125 C42.77875,16.54625 42.77,17.15875 42.5075,17.70125 L37.17,28.805 C36.6275,29.91625 35.2975,30.38875 34.20375,29.855 L34.20375,29.855 Z" id="路径" fill="#FFFFFF"></path>
                    <path d="M54.04875,0.595 C53.69,0.23625 53.20875,0.245 53.20875,0.245 C53.20875,0.245 42.95375,0.8225 37.6425,0.945 C36.47875,0.97125 35.32375,0.9975 34.1775,1.00625 L34.1775,11.26125 C33.69625,11.03375 33.20625,10.7975 32.725,10.57 C32.725,7.385 32.71625,1.015 32.71625,1.015 C30.17875,1.05 24.91125,0.8225 24.91125,0.8225 C24.91125,0.8225 12.53875,0.20125 11.19125,0.07875 C10.33375,0.02625 9.2225,-0.105 7.77875,0.21 C7.0175,0.3675 4.8475,0.8575 3.07125,2.56375 C-0.86625,6.0725 0.14,11.655 0.2625,12.495 C0.41125,13.51875 0.86625,16.3625 3.03625,18.83875 C7.04375,23.7475 15.67125,23.63375 15.67125,23.63375 C15.67125,23.63375 16.73,26.1625 18.34875,28.49 C20.53625,31.38625 22.785,33.64375 24.9725,33.915 C30.485,33.915 41.50125,33.90625 41.50125,33.90625 C41.50125,33.90625 42.55125,33.915 43.9775,33.005 C45.2025,32.26125 46.29625,30.9575 46.29625,30.9575 C46.29625,30.9575 47.425,29.75 49,26.99375 C49.48125,26.145 49.88375,25.3225 50.23375,24.54375 C50.23375,24.54375 55.06375,14.2975 55.06375,4.3225 C54.9675,1.30375 54.22375,0.77 54.04875,0.595 Z M10.5525,18.45375 C8.28625,17.71 7.32375,16.8175 7.32375,16.8175 C7.32375,16.8175 5.6525,15.645 4.8125,13.335 C3.36875,9.4675 4.69,7.105 4.69,7.105 C4.69,7.105 5.425,5.13625 8.05875,4.48 C9.26625,4.15625 10.77125,4.20875 10.77125,4.20875 C10.77125,4.20875 11.3925,9.40625 12.145,12.45125 C12.775,15.00625 14.315,19.25 14.315,19.25 C14.315,19.25 12.03125,18.97875 10.5525,18.45375 Z M36.82875,27.86875 C36.82875,27.86875 36.295,29.1375 35.11375,29.21625 C34.60625,29.25125 34.2125,29.11125 34.2125,29.11125 C34.2125,29.11125 34.18625,29.1025 33.74875,28.9275 L23.87,24.115 C23.87,24.115 22.91625,23.61625 22.75,22.75 C22.5575,22.04125 22.98625,21.16625 22.98625,21.16625 L27.7375,11.375 C27.7375,11.375 28.1575,10.52625 28.805,10.2375 C28.8575,10.21125 29.00625,10.15 29.19875,10.10625 C29.9075,9.9225 30.77375,10.35125 30.77375,10.35125 L40.46,15.05 C40.46,15.05 41.5625,15.54875 41.79875,16.4675 C41.965,17.115 41.755,17.6925 41.64125,17.9725 C41.09,19.32 36.82875,27.86875 36.82875,27.86875 Z" id="形状" fill="#609926"></path>
                    <path d="M28.1575,20.74625 C27.44,20.755 26.81,21.25375 26.64375,21.95375 C26.4775,22.65375 26.81875,23.38 27.44,23.70375 C28.11375,24.05375 28.97125,23.86125 29.42625,23.23125 C29.8725,22.61 29.8025,21.7525 29.26875,21.21 L31.36875,16.91375 C31.5,16.9225 31.6925,16.93125 31.91125,16.87 C32.27,16.79125 32.5325,16.555 32.5325,16.555 C32.9,16.7125 33.285,16.8875 33.6875,17.08875 C34.1075,17.29875 34.50125,17.5175 34.86,17.7275 C34.93875,17.77125 35.0175,17.82375 35.105,17.89375 C35.245,18.0075 35.4025,18.165 35.51625,18.375 C35.6825,18.85625 35.35,19.67875 35.35,19.67875 C35.14875,20.34375 33.74,23.23125 33.74,23.23125 C33.03125,23.21375 32.40125,23.66875 32.19125,24.325 C31.96375,25.03375 32.2875,25.83875 32.97,26.18875 C33.6525,26.53875 34.4925,26.3375 34.93875,25.725 C35.37625,25.13 35.34125,24.29875 34.8425,23.7475 C35.00875,23.42375 35.16625,23.1 35.3325,22.75875 C35.77,21.84875 36.51375,20.09875 36.51375,20.09875 C36.5925,19.95 37.0125,19.1975 36.75,18.235 C36.53125,17.2375 35.6475,16.77375 35.6475,16.77375 C34.58,16.0825 33.0925,15.44375 33.0925,15.44375 C33.0925,15.44375 33.0925,15.085 32.99625,14.8225 C32.9,14.55125 32.75125,14.37625 32.655,14.27125 C33.06625,13.4225 33.4775,12.5825 33.88875,11.73375 C33.53,11.55875 33.18,11.38375 32.82125,11.2 C32.40125,12.0575 31.9725,12.92375 31.5525,13.78125 C30.96625,13.7725 30.42375,14.0875 30.14375,14.60375 C29.84625,15.155 29.9075,15.8375 30.31,16.33625 L28.1575,20.74625 L28.1575,20.74625 Z" id="路径" fill="#609926"></path>
                </g>
            </g>
        </g>
    </g>
</svg>
